X: 1
T: Cathal's Magic Fingers
C: Gordon Gunn
M: 3/4
R: Hornpipe
L: 1/8
S: "Bottlenecks and Arm-breakers" by Session A9
K: F#m
|:A>F F>A G>E|A>F F>A B>c|A>F F>A G>F|G>E ~E3 B>c|
A>F F>A G>E|A>F F>A B>c|e>B B>e B>c|1G>B e>c B>G:|2G>B e>g f>e||
|:f3 f e>c|B>G B>c e>g|f3 f e>c|e>B B>e B>e|
[1 f3 g e>c|f>e f>g b2|g/f/e f>g e>c|B>G B>c e>g:|
[2 b>g e>g f>e|f>b e>b f>b|e>B B>e B>c|e>c B>G E>G|]
